icons/play-outline.svg

<svg width="24" height="24" viewBox="0 0 24 24" fill="none" xmlns="http://www.w3.org/2000/svg">
<path fill-rule="evenodd" clip-rule="evenodd" d="M4.943 2.30088C5.535 1.93588 6.185 1.90288 6.894 2.20088L18.92 10.2129C19.64 10.6599 20 11.2559 20 12.0029C20 12.7499 19.64 13.3459 18.92 13.7929L6.894 21.8009C6.188 22.0979 5.538 22.0629 4.944 21.6959C4.349 21.3279 4.034 20.7659 4 20.0109V3.99088C4.038 3.23088 4.352 2.66688 4.943 2.30088ZM6 3.99988V19.9999L18 11.9999L6 3.99988Z" fill="#3A3A47"/>
</svg>

<svg xmlns="http://www.w3.org/2000/svg" width="24" height="24" viewBox="0 0 24 24">
    <path fill="#3A3A47" fill-rule="evenodd" d="M6.894 2.201l12.026 8.012c.72.447 1.08 1.043 1.08 1.79 0 .747-.36 1.343-1.08 1.79L6.894 21.801c-.706.297-1.356.262-1.95-.105-.595-.368-.91-.93-.944-1.685V3.991c.038-.76.352-1.324.943-1.69.592-.365 1.242-.398 1.951-.1zM6 4v16l12-8L6 4z"/>
</svg>
